build/img/logo-white.svg

<svg width="97" height="80" viewBox="0 0 97 80" fill="none" xmlns="http://www.w3.org/2000/svg">
<path d="M22.322 33.9412L49.1921 7.07108C53.0973 3.16583 59.429 3.16583 63.3343 7.07107L90.2044 33.9412L91.2165 34.9533C94.0037 37.7405 94.0037 42.2595 91.2165 45.0467V45.0467L63.3342 72.9289C59.429 76.8342 53.0974 76.8342 49.1921 72.9289L22.322 46.0588" stroke="white" stroke-width="2"/>
<path d="M73.9412 33.9412L47.0711 7.07108C43.1658 3.16583 36.8342 3.16583 32.9289 7.07107L6.05883 33.9412L5.04668 34.9533C2.25948 37.7405 2.25948 42.2595 5.04668 45.0467V45.0467L32.9289 72.9289C36.8342 76.8342 43.1658 76.8342 47.0711 72.9289L73.9412 46.0588" stroke="white" stroke-width="2"/>
<path d="M18.7749 42.3999L18.064 40.5835H15.7749L15.0718 42.3999H14.3999L16.6577 36.6655H17.2163L19.4624 42.3999H18.7749ZM17.8569 39.9858L17.1929 38.2163C17.1069 37.9924 17.0184 37.7176 16.9272 37.3921C16.87 37.6421 16.7879 37.9168 16.6812 38.2163L16.0093 39.9858H17.8569Z" fill="white"/>
<path d="M22.7593 39.4077H24.7007V42.1851C24.3986 42.2814 24.0913 42.3543 23.7788 42.4038C23.4663 42.4533 23.1043 42.478 22.6929 42.478C21.8283 42.478 21.1551 42.2215 20.6733 41.7085C20.1916 41.1929 19.9507 40.4715 19.9507 39.5444C19.9507 38.9507 20.0692 38.4312 20.3062 37.9858C20.5457 37.5379 20.8895 37.1968 21.3374 36.9624C21.7853 36.7254 22.3101 36.6069 22.9116 36.6069C23.521 36.6069 24.0887 36.7189 24.6147 36.9429L24.3569 37.5288C23.8413 37.3101 23.3452 37.2007 22.8687 37.2007C22.1733 37.2007 21.6304 37.4077 21.2397 37.8218C20.8491 38.2358 20.6538 38.8101 20.6538 39.5444C20.6538 40.3153 20.8413 40.8999 21.2163 41.2983C21.5939 41.6968 22.1473 41.896 22.8765 41.896C23.2723 41.896 23.659 41.8504 24.0366 41.7593V40.0015H22.7593V39.4077Z" fill="white"/>
<path d="M29.2593 42.3999H26.0757V36.689H29.2593V37.2788H26.7397V39.1187H29.1069V39.7046H26.7397V41.8062H29.2593V42.3999Z" fill="white"/>
<path d="M34.9897 42.3999H34.2319L31.1108 37.6069H31.0796C31.1213 38.1694 31.1421 38.6851 31.1421 39.1538V42.3999H30.5288V36.689H31.2788L34.3921 41.4624H34.4233C34.4181 41.3921 34.4064 41.1668 34.3882 40.7866C34.37 40.4038 34.3634 40.1304 34.3687 39.9663V36.689H34.9897V42.3999Z" fill="white"/>
<path d="M39.0054 37.2007C38.3778 37.2007 37.8817 37.4103 37.5171 37.8296C37.1551 38.2463 36.9741 38.8179 36.9741 39.5444C36.9741 40.2918 37.1486 40.87 37.4976 41.2788C37.8491 41.6851 38.3491 41.8882 38.9976 41.8882C39.396 41.8882 39.8504 41.8166 40.3608 41.6733V42.2554C39.965 42.4038 39.4767 42.478 38.896 42.478C38.0549 42.478 37.4051 42.2228 36.9468 41.7124C36.491 41.202 36.2632 40.4767 36.2632 39.5366C36.2632 38.9481 36.3726 38.4325 36.5913 37.9897C36.8127 37.547 37.1304 37.2059 37.5444 36.9663C37.9611 36.7267 38.4507 36.6069 39.0132 36.6069C39.6121 36.6069 40.1356 36.7163 40.5835 36.9351L40.3022 37.5054C39.87 37.3022 39.4377 37.2007 39.0054 37.2007Z" fill="white"/>
<path d="M43.0601 39.5444L44.5835 36.689H45.3022L43.396 40.1851V42.3999H42.7241V40.2163L40.8218 36.689H41.5483L43.0601 39.5444Z" fill="white"/>
<path d="M51.3921 40.8804C51.3921 41.383 51.2098 41.7749 50.8452 42.0562C50.4806 42.3374 49.9858 42.478 49.3608 42.478C48.6838 42.478 48.1629 42.3908 47.7983 42.2163V41.5757C48.0327 41.6746 48.2879 41.7528 48.564 41.8101C48.84 41.8674 49.1134 41.896 49.3843 41.896C49.827 41.896 50.1603 41.8127 50.3843 41.646C50.6082 41.4767 50.7202 41.2424 50.7202 40.9429C50.7202 40.745 50.6799 40.5835 50.5991 40.4585C50.521 40.3309 50.3882 40.2137 50.2007 40.1069C50.0158 40.0002 49.7332 39.8791 49.353 39.7437C48.8218 39.5535 48.4416 39.3283 48.2124 39.0679C47.9858 38.8075 47.8726 38.4676 47.8726 38.0483C47.8726 37.6082 48.0379 37.258 48.3687 36.9976C48.6994 36.7371 49.1369 36.6069 49.6812 36.6069C50.2489 36.6069 50.771 36.7111 51.2476 36.9194L51.0405 37.4976C50.5692 37.2996 50.1108 37.2007 49.6655 37.2007C49.314 37.2007 49.0392 37.2762 48.8413 37.4272C48.6434 37.5783 48.5444 37.7879 48.5444 38.0562C48.5444 38.2541 48.5809 38.4168 48.6538 38.5444C48.7267 38.6694 48.8491 38.7853 49.021 38.8921C49.1955 38.9963 49.4611 39.1121 49.8179 39.2397C50.4168 39.4533 50.8283 39.6825 51.0522 39.9272C51.2788 40.172 51.3921 40.4897 51.3921 40.8804Z" fill="white"/>
<path d="M55.7437 42.3999H52.5601V36.689H55.7437V37.2788H53.2241V39.1187H55.5913V39.7046H53.2241V41.8062H55.7437V42.3999Z" fill="white"/>
<path d="M57.6772 40.0249V42.3999H57.0132V36.689H58.5796C59.2801 36.689 59.797 36.8231 60.1304 37.0913C60.4663 37.3595 60.6343 37.7632 60.6343 38.3022C60.6343 39.0575 60.2515 39.5679 59.4858 39.8335L61.0366 42.3999H60.2515L58.8687 40.0249H57.6772ZM57.6772 39.4546H58.5874C59.0562 39.4546 59.3999 39.3621 59.6187 39.1772C59.8374 38.9897 59.9468 38.7098 59.9468 38.3374C59.9468 37.9598 59.8348 37.6877 59.6108 37.521C59.3895 37.3543 59.0327 37.271 58.5405 37.271H57.6772V39.4546Z" fill="white"/>
<path d="M65.2202 36.689H65.9351L63.8765 42.3999H63.2202L61.1733 36.689H61.8765L63.189 40.3843C63.34 40.8088 63.4598 41.2215 63.5483 41.6226C63.6421 41.2007 63.7645 40.7801 63.9155 40.3608L65.2202 36.689Z" fill="white"/>
<path d="M66.7241 42.3999V36.689H67.3882V42.3999H66.7241Z" fill="white"/>
<path d="M71.4038 37.2007C70.7762 37.2007 70.2801 37.4103 69.9155 37.8296C69.5536 38.2463 69.3726 38.8179 69.3726 39.5444C69.3726 40.2918 69.547 40.87 69.896 41.2788C70.2476 41.6851 70.7476 41.8882 71.396 41.8882C71.7944 41.8882 72.2489 41.8166 72.7593 41.6733V42.2554C72.3634 42.4038 71.8752 42.478 71.2944 42.478C70.4533 42.478 69.8036 42.2228 69.3452 41.7124C68.8895 41.202 68.6616 40.4767 68.6616 39.5366C68.6616 38.9481 68.771 38.4325 68.9897 37.9897C69.2111 37.547 69.5288 37.2059 69.9429 36.9663C70.3595 36.7267 70.8491 36.6069 71.4116 36.6069C72.0106 36.6069 72.534 36.7163 72.9819 36.9351L72.7007 37.5054C72.2684 37.3022 71.8361 37.2007 71.4038 37.2007Z" fill="white"/>
<path d="M77.189 42.3999H74.0054V36.689H77.189V37.2788H74.6694V39.1187H77.0366V39.7046H74.6694V41.8062H77.189V42.3999Z" fill="white"/>
<path d="M81.6812 40.8804C81.6812 41.383 81.4989 41.7749 81.1343 42.0562C80.7697 42.3374 80.2749 42.478 79.6499 42.478C78.9728 42.478 78.452 42.3908 78.0874 42.2163V41.5757C78.3218 41.6746 78.577 41.7528 78.853 41.8101C79.1291 41.8674 79.4025 41.896 79.6733 41.896C80.1161 41.896 80.4494 41.8127 80.6733 41.646C80.8973 41.4767 81.0093 41.2424 81.0093 40.9429C81.0093 40.745 80.9689 40.5835 80.8882 40.4585C80.8101 40.3309 80.6772 40.2137 80.4897 40.1069C80.3048 40.0002 80.0223 39.8791 79.6421 39.7437C79.1108 39.5535 78.7306 39.3283 78.5015 39.0679C78.2749 38.8075 78.1616 38.4676 78.1616 38.0483C78.1616 37.6082 78.327 37.258 78.6577 36.9976C78.9884 36.7371 79.4259 36.6069 79.9702 36.6069C80.5379 36.6069 81.0601 36.7111 81.5366 36.9194L81.3296 37.4976C80.8582 37.2996 80.3999 37.2007 79.9546 37.2007C79.603 37.2007 79.3283 37.2762 79.1304 37.4272C78.9325 37.5783 78.8335 37.7879 78.8335 38.0562C78.8335 38.2541 78.87 38.4168 78.9429 38.5444C79.0158 38.6694 79.1382 38.7853 79.3101 38.8921C79.4845 38.9963 79.7502 39.1121 80.1069 39.2397C80.7059 39.4533 81.1173 39.6825 81.3413 39.9272C81.5679 40.172 81.6812 40.4897 81.6812 40.8804Z" fill="white"/>
<path d="M42.3705 24.9204H44.0832L41.3637 32.9204H39.5141L36.8 24.9204H38.5128L40.0176 29.681C40.1015 29.9619 40.1872 30.2902 40.2747 30.666C40.3659 31.0381 40.4225 31.2971 40.4444 31.443C40.4845 31.1074 40.6213 30.52 40.8548 29.681L42.3705 24.9204Z" fill="white"/>
<path d="M51.5306 32.9204H49.6044L47.5087 29.5497L46.7918 30.064V32.9204H45.0955V24.9204H46.7918V28.5811L47.4594 27.64L49.6263 24.9204H51.5087L48.718 28.4608L51.5306 32.9204Z" fill="white"/>
<path d="M57.101 24.9204H58.8137L56.0942 32.9204H54.2446L51.5306 24.9204H53.2433L54.7481 29.681C54.832 29.9619 54.9177 30.2902 55.0052 30.666C55.0964 31.0381 55.153 31.2971 55.1749 31.443C55.215 31.1074 55.3518 30.52 55.5853 29.681L57.101 24.9204Z" fill="white"/>
</svg>

<svg width="97" height="80" fill="none" xmlns="http://www.w3.org/2000/svg"><path d="M22.322 33.941l26.87-26.87c3.905-3.905 10.237-3.905 14.142 0l26.87 26.87 1.013 1.012a7.137 7.137 0 010 10.094v0L63.334 72.929c-3.905 3.905-10.237 3.905-14.142 0l-26.87-26.87" stroke="#fff" stroke-width="2"/><path d="M73.941 33.941l-26.87-26.87c-3.905-3.905-10.237-3.905-14.142 0l-26.87 26.87-1.012 1.012a7.137 7.137 0 000 10.094v0l27.882 27.882c3.905 3.905 10.237 3.905 14.142 0l26.87-26.87" stroke="#fff" stroke-width="2"/><path d="M18.775 42.4l-.711-1.816h-2.29l-.702 1.816H14.4l2.258-5.734h.558l2.246 5.734h-.687zm-.918-2.414l-.664-1.77a9.468 9.468 0 01-.266-.824 7.47 7.47 0 01-.246.824l-.672 1.77h1.848zm4.903-.578h1.94v2.777c-.301.096-.609.17-.921.219-.313.05-.675.074-1.086.074-.865 0-1.538-.257-2.02-.77-.481-.515-.722-1.236-.722-2.164 0-.593.118-1.113.355-1.558a2.42 2.42 0 011.031-1.024c.448-.237.973-.355 1.575-.355.609 0 1.177.112 1.703.336l-.258.586c-.516-.219-1.012-.328-1.488-.328-.696 0-1.239.207-1.63.62-.39.415-.585.99-.585 1.723 0 .771.187 1.356.562 1.754.378.399.931.598 1.66.598.396 0 .783-.046 1.16-.137v-1.758H22.76v-.593zm6.5 2.992h-3.184v-5.711h3.183v.59h-2.52v1.84h2.368v.586H26.74v2.101h2.52v.594zm5.73 0h-.758l-3.121-4.793h-.031c.041.562.062 1.078.062 1.547V42.4h-.613v-5.711h.75l3.113 4.773h.031c-.005-.07-.017-.295-.035-.675a11.778 11.778 0 01-.02-.82v-3.278h.622v5.71zm4.015-5.2c-.627 0-1.123.21-1.488.63-.362.416-.543.988-.543 1.714 0 .748.175 1.326.524 1.735.351.406.851.61 1.5.61.398 0 .852-.072 1.363-.216v.582c-.396.149-.884.223-1.465.223-.841 0-1.49-.255-1.95-.766-.455-.51-.683-1.235-.683-2.175 0-.589.11-1.105.328-1.547.222-.443.54-.784.953-1.024.417-.24.907-.36 1.47-.36.598 0 1.122.11 1.57.33l-.282.57a3.025 3.025 0 00-1.297-.305zm4.055 2.344l1.523-2.855h.72l-1.907 3.496V42.4h-.672v-2.184l-1.902-3.527h.726l1.512 2.855zm8.332 1.336c0 .503-.182.895-.547 1.176-.364.281-.86.422-1.484.422-.677 0-1.198-.087-1.563-.262v-.64c.235.099.49.177.766.234.276.057.55.086.82.086.443 0 .776-.083 1-.25a.832.832 0 00.336-.703c0-.198-.04-.36-.12-.484-.079-.128-.212-.245-.4-.352a5.485 5.485 0 00-.847-.363c-.531-.19-.911-.416-1.14-.676-.227-.26-.34-.6-.34-1.02 0-.44.165-.79.496-1.05.33-.26.768-.391 1.312-.391.568 0 1.09.104 1.567.312l-.207.579a3.538 3.538 0 00-1.375-.297c-.352 0-.627.075-.825.226a.747.747 0 00-.297.63c0 .197.037.36.11.487.073.125.195.241.367.348.175.104.44.22.797.348.599.213 1.01.442 1.234.687.227.245.34.563.34.953zm4.352 1.52H52.56v-5.711h3.184v.59h-2.52v1.84h2.367v.586h-2.367v2.101h2.52v.594zm1.933-2.375V42.4h-.664v-5.711h1.567c.7 0 1.217.134 1.55.402.336.268.504.672.504 1.211 0 .755-.383 1.266-1.148 1.532l1.55 2.566h-.785l-1.382-2.375h-1.192zm0-.57h.91c.47 0 .813-.093 1.032-.278.218-.187.328-.467.328-.84 0-.377-.112-.65-.336-.816-.221-.167-.578-.25-1.07-.25h-.864v2.184zm7.543-2.766h.715l-2.059 5.71h-.656l-2.047-5.71h.703l1.313 3.695c.151.425.27.837.36 1.239.093-.422.215-.843.367-1.262l1.304-3.672zm1.504 5.711v-5.711h.664v5.71h-.664zm4.68-5.2c-.628 0-1.124.21-1.489.63-.361.416-.542.988-.542 1.714 0 .748.174 1.326.523 1.735.352.406.852.61 1.5.61.398 0 .853-.072 1.363-.216v.582c-.396.149-.884.223-1.465.223-.84 0-1.49-.255-1.949-.766-.456-.51-.683-1.235-.683-2.175 0-.589.109-1.105.328-1.547.221-.443.539-.784.953-1.024.416-.24.906-.36 1.469-.36.599 0 1.122.11 1.57.33l-.281.57a3.026 3.026 0 00-1.297-.305zm5.785 5.2h-3.184v-5.711h3.184v.59h-2.52v1.84h2.368v.586h-2.368v2.101h2.52v.594zm4.492-1.52c0 .503-.182.895-.547 1.176-.364.281-.86.422-1.484.422-.677 0-1.198-.087-1.563-.262v-.64c.235.099.49.177.766.234.276.057.55.086.82.086.443 0 .776-.083 1-.25a.832.832 0 00.336-.703c0-.198-.04-.36-.12-.484-.079-.128-.212-.245-.4-.352a5.483 5.483 0 00-.847-.363c-.531-.19-.911-.416-1.14-.676-.227-.26-.34-.6-.34-1.02 0-.44.165-.79.496-1.05.33-.26.768-.391 1.312-.391.568 0 1.09.104 1.567.312l-.207.579a3.539 3.539 0 00-1.375-.297c-.352 0-.627.075-.825.226a.747.747 0 00-.296.63c0 .197.036.36.109.487.073.125.195.241.367.348.174.104.44.22.797.348.599.213 1.01.442 1.234.687.227.245.34.563.34.953zM42.37 24.92h1.713l-2.72 8h-1.849l-2.714-8h1.713l1.505 4.761c.084.28.17.61.257.985.09.372.148.631.17.777.04-.336.176-.923.41-1.762l1.516-4.76zm9.16 8h-1.926l-2.095-3.37-.717.514v2.856h-1.697v-8h1.697v3.661l.667-.941 2.167-2.72h1.883l-2.791 3.54 2.813 4.46zm5.571-8h1.713l-2.72 8h-1.85l-2.713-8h1.712l1.505 4.761c.084.28.17.61.257.985.091.372.148.631.17.777.04-.336.177-.923.41-1.762l1.516-4.76z" fill="#fff"/></svg>
